; generated by PrusaSlicer 2.5.0+win64 on 2023-01-23 at 20:41:06 UTC


;
;
; 

; external perimeters extrusion width = 0.45mm
; perimeters extrusion width = 0.45mm
; infill extrusion width = 0.45mm
; solid infill extrusion width = 0.45mm
; top infill extrusion width = 0.40mm
; first layer extrusion width = 0.42mm

M73 P0 R291
M73 Q0 S292
M201 X1000 Y1000 Z200 E5000 ; sets maximum accelerations, mm/sec^2
M203 X200 Y200 Z12 E120 ; sets maximum feedrates, mm / sec
M204 P1250 R1250 T1250 ; sets acceleration (P, T) and retract acceleration (R), mm/sec^2
M205 X8.00 Y8.00 Z0.40 E4.50 ; sets the jerk limits, mm/sec
M205 S0 T0 ; sets the minimum extruding and travel feed rate, mm/sec
M107
;TYPE:Custom
M862.3 P "MK3S" ; printer model check
M862.1 P0.4 ; nozzle diameter check
M115 U3.11.0 ; tell printer latest fw version
G90 ; use absolute coordinates
M83 ; extruder relative mode
M104 S215 ; set extruder temp
M140 S60 ; set bed temp
M190 S60 ; wait for bed temp
M109 S215 ; wait for extruder temp
G28 W ; home all without mesh bed level
G80 ; mesh bed leveling

G1 Z0.2 F720
G1 Y-3 F1000 ; go outside print area
G92 E0
G1 X60 E9 F1000 ; intro line
G1 X100 E12.5 F1000 ; intro line

G92 E0
M221 S95

; Don't change E values below. Excessive value can damage the printer.
M907 E430 ; set extruder motor current
G21 ; set units to millimeters
G90 ; use absolute coordinates
M83 ; use relative distances for extrusion
M900 K0.05 ; Filament gcode LA 1.5
M900 K30 ; Filament gcode LA 1.0
M107
;LAYER_CHANGE
;Z:0.2
;HEIGHT:0.2
;BEFORE_LAYER_CHANGE
G92 E0.0
;0.2


G1 E-.8 F2100
G1 Z.4 F720
;AFTER_LAYER_CHANGE
;0.2
G1 X84.515 Y73.693 F10800
G1 Z.2 F720
G1 E.8 F2100
M204 S800
;TYPE:Skirt/Brim
;WIDTH:0.42
G1 F1200
G1 X85.56 Y72.817 E.04278
G1 X86.5 Y72.623 E.03008
G1 X163.5 Y72.623 E2.41428
G1 X164.807 Y73.015 E.04278
G1 X165.683 Y74.06 E.04278
G1 X165.877 Y75 E.03008
G1 X165.877 Y135 E1.88126
G1 X165.485 Y136.307 E.04278
G1 X164.44 Y137.183 E.04278
G1 X163.5 Y137.377 E.03008
G1 X86.5 Y137.377 E2.41428
G1 X85.193 Y136.985 E.04278
G1 X84.317 Y135.94 E.04278
G1 X84.123 Y135 E.03008
G1 X84.123 Y75 E1.88126
G1 X84.497 Y73.75 E.0409
M204 S1000
; printing object CamMount.stl id:0 copy 0
;WIPE_START
G1 F8640
G1 X85.56 Y72.817 E-.32671
G1 X86.5 Y72.623 E-.22155
G1 X87.417 Y72.623 E-.21174
;WIPE_END
G1 E-.04 F2100
G1 Z.6 F720
G1 X162.336 Y133.836 F10800
G1 Z.2 F720
G1 E.8 F2100
M204 S800
;TYPE:Perimeter
;WIDTH:0.419999
G1 F1200
G1 X87.664 Y133.836 E2.34127
G1 X87.664 Y76.164 E1.80825
G1 X162.336 Y76.164 E2.34127
G1 X162.336 Y133.776 E1.80637
M204 S1000
G1 X162.713 Y134.213 F10800
M204 S800
G1 F1200
G1 X87.287 Y134.213 E2.36492
G1 X87.287 Y75.787 E1.8319
M73 P0 R290
G1 X162.713 Y75.787 E2.36492
G1 X162.713 Y134.153 E1.83002
M204 S1000
G1 X163.09 Y134.59 F10800
M204 S800
;TYPE:External perimeter
G1 F1200
G1 X86.91 Y134.59 E2.38857
G1 X86.91 Y75.41 E1.85554
G1 X163.09 Y75.41 E2.38857
G1 X163.09 Y134.53 E1.85366
M204 S1000
M73 Q0 S291
G1 X162.7 Y134.503 F10800
;WIPE_START
G1 F8640
G1 X159.799 Y134.533 E-.76
;WIPE_END
G1 E-.04 F2100
G1 Z.6 F720
G1 X157.878 Y79.119 F10800
G1 Z.2 F720
G1 E.8 F2100
M204 S800
;TYPE:Perimeter
G1 F1200
G1 X158.202 Y79.173 E.01031
G1 X158.958 Y79.484 E.02562
G1 X159.199 Y79.641 E.00902
G1 X159.649 Y80.041 E.01888
G1 X159.832 Y80.264 E.00902
G1 X160.139 Y80.781 E.01888
G1 X160.247 Y81.048 E.00902
G1 X160.384 Y81.634 E.01888
G1 X160.409 Y81.849 E.00678
G1 X160.36 Y82.522 E.02114
G1 X160.295 Y82.802 E.00902
G1 X160.07 Y83.36 E.01888
G1 X159.922 Y83.608 E.00902
G1 X159.539 Y84.072 E.01888
G1 X159.325 Y84.264 E.00902
G1 X158.819 Y84.591 E.01888
G1 X158.557 Y84.709 E.00902
G1 X157.976 Y84.868 E.01888
G1 X157.69 Y84.901 E.00902
G1 X157.088 Y84.878 E.01888
G1 X156.806 Y84.823 E.00902
G1 X156.239 Y84.62 E.01888
G1 X155.986 Y84.482 E.00902
G1 X155.508 Y84.117 E.01888
G1 X155.308 Y83.91 E.00902
G1 X154.962 Y83.418 E.01887
G1 X154.745 Y82.947 E.01623
G1 X154.596 Y82.144 E.02562
G1 X154.596 Y81.856 E.00902
G1 X154.688 Y81.261 E.01888
G1 X154.775 Y80.987 E.00902
G1 X155.042 Y80.447 E.01887
G1 X155.352 Y80.033 E.01623
G1 X155.986 Y79.518 E.02562
G1 X156.448 Y79.284 E.01623
G1 X157.218 Y79.107 E.02477
G1 X157.818 Y79.11 E.01883
M204 S1000
G1 X157.774 Y79.485 F10800
M204 S800
G1 F1200
G1 X158.254 Y79.582 E.01535
G1 X158.803 Y79.829 E.01888
G1 X159.398 Y80.323 E.02424
G1 X159.815 Y80.974 E.02424
G1 X160.017 Y81.72 E.02424
G1 X160.032 Y81.849 E.00407
G1 X159.984 Y82.493 E.02024
G1 X159.72 Y83.219 E.02424
G1 X159.248 Y83.832 E.02424
G1 X158.614 Y84.274 E.02424
G1 X157.876 Y84.504 E.02424
G1 X157.103 Y84.501 E.02424
G1 X156.367 Y84.265 E.02424
G1 X155.736 Y83.817 E.02424
G1 X155.27 Y83.201 E.02424
G1 X155.07 Y82.728 E.01608
G1 X154.969 Y82.086 E.02037
G1 X155.061 Y81.319 E.02424
G1 X155.38 Y80.615 E.02424
G1 X155.736 Y80.183 E.01755
G1 X156.215 Y79.818 E.01887
G1 X156.724 Y79.589 E.0175
G1 X157.291 Y79.477 E.01811
G1 X157.714 Y79.484 E.01328
M204 S1000
G1 X157.744 Y79.855 F10800
M204 S800
;TYPE:External perimeter
G1 F1200
G1 X158.1 Y79.926 E.01138
G1 X158.649 Y80.173 E.01888
G1 X159.147 Y80.605 E.02066
G1 X159.491 Y81.166 E.02066
G1 X159.655 Y81.849 E.02201
G1 X159.608 Y82.464 E.01933
G1 X159.37 Y83.078 E.02066
G1 X158.958 Y83.592 E.02066
G1 X158.409 Y83.958 E.02066
G1 X157.776 Y84.141 E.02066
G1 X157.117 Y84.124 E.02066
G1 X156.494 Y83.91 E.02066
G1 X155.965 Y83.517 E.02066
G1 X155.579 Y82.984 E.02066
G1 X155.433 Y82.624 E.01217
G1 X155.342 Y82.029 E.01888
G1 X155.433 Y81.376 E.02066
G1 X155.718 Y80.782 E.02066
G1 X155.965 Y80.483 E.01216
G1 X156.443 Y80.118 E.01887
G1 X156.797 Y79.959 E.01215
G1 X157.364 Y79.847 E.01811
G1 X157.684 Y79.854 E.01004
M204 S1000
G1 X157.954 Y79.56 F10800
;WIPE_START
G1 F8640
G1 X158.1 Y79.926 E-.09747
G1 X158.649 Y80.173 E-.13902
G1 X159.147 Y80.605 E-.15217
G1 X159.491 Y81.166 E-.15217
G1 X159.655 Y81.849 E-.16208
G1 X159.636 Y82.096 E-.05708
;WIPE_END
G1 E-.04 F2100
G1 Z.6 F720
G1 X157.878 Y125.119 F10800
G1 Z.2 F720
G1 E.8 F2100
M204 S800
;TYPE:Perimeter
G1 F1200
G1 X158.202 Y125.173 E.01031
G1 X158.958 Y125.484 E.02562
G1 X159.199 Y125.641 E.00902
G1 X159.649 Y126.041 E.01888
G1 X159.832 Y126.264 E.00902
G1 X160.139 Y126.781 E.01888
G1 X160.247 Y127.048 E.00902
G1 X160.384 Y127.634 E.01888
G1 X160.406 Y127.921 E.00902
G1 X160.36 Y128.522 E.01888
G1 X160.295 Y128.802 E.00902
G1 X160.07 Y129.36 E.01888
G1 X159.922 Y129.608 E.00902
G1 X159.539 Y130.072 E.01888
G1 X159.325 Y130.264 E.00902
G1 X158.819 Y130.591 E.01888
G1 X158.557 Y130.709 E.00902
G1 X157.976 Y130.868 E.01888
G1 X157.69 Y130.901 E.00902
G1 X157.088 Y130.878 E.01888
G1 X156.806 Y130.823 E.00902
G1 X156.239 Y130.62 E.01888
G1 X155.986 Y130.482 E.00902
G1 X155.508 Y130.117 E.01888
G1 X155.308 Y129.91 E.00902
G1 X154.962 Y129.418 E.01887
G1 X154.745 Y128.947 E.01623
G1 X154.596 Y128.144 E.02562
G1 X154.596 Y127.856 E.00902
G1 X154.688 Y127.261 E.01888
G1 X154.775 Y126.987 E.00902
G1 X155.042 Y126.447 E.01887
G1 X155.352 Y126.033 E.01623
G1 X155.986 Y125.518 E.02562
G1 X156.448 Y125.284 E.01623
G1 X157.218 Y125.107 E.02477
G1 X157.818 Y125.11 E.01883
M204 S1000
G1 X157.774 Y125.485 F10800
M204 S800
G1 F1200
G1 X158.254 Y125.582 E.01535
G1 X158.803 Y125.829 E.01888
G1 X159.398 Y126.323 E.02424
G1 X159.815 Y126.974 E.02424
G1 X160.017 Y127.72 E.02424
G1 X159.984 Y128.493 E.02424
G1 X159.72 Y129.219 E.02424
G1 X159.248 Y129.832 E.02424
G1 X158.614 Y130.274 E.02424
G1 X157.876 Y130.504 E.02424
G1 X157.103 Y130.501 E.02424
G1 X156.367 Y130.265 E.02424
G1 X155.736 Y129.817 E.02424
G1 X155.27 Y129.201 E.02424
G1 X155.061 Y128.681 E.01755
G1 X154.969 Y128.086 E.01888
G1 X155.061 Y127.319 E.02424
G1 X155.38 Y126.615 E.02424
G1 X155.643 Y126.273 E.01352
G1 X156.215 Y125.818 E.02292
G1 X156.678 Y125.6 E.01604
G1 X157.291 Y125.477 E.01959
G1 X157.714 Y125.484 E.01328
M204 S1000
G1 X157.744 Y125.855 F10800
M204 S800
;TYPE:External perimeter
G1 F1200
G1 X158.1 Y125.926 E.01138
G1 X158.649 Y126.173 E.01888
G1 X159.147 Y126.605 E.02066
G1 X159.491 Y127.166 E.02066
G1 X159.65 Y127.806 E.02066
G1 X159.608 Y128.464 E.02066
G1 X159.37 Y129.078 E.02066
G1 X158.958 Y129.592 E.02066
G1 X158.409 Y129.958 E.02066
G1 X157.776 Y130.141 E.02066
G1 X157.117 Y130.124 E.02066
G1 X156.494 Y129.91 E.02066
G1 X155.965 Y129.517 E.02066
G1 X155.579 Y128.984 E.02066
G1 X155.433 Y128.624 E.01217
G1 X155.342 Y128.029 E.01888
G1 X155.433 Y127.376 E.02066
G1 X155.718 Y126.782 E.02066
G1 X155.934 Y126.513 E.01082
G1 X156.443 Y126.118 E.02022
G1 X156.797 Y125.959 E.01215
G1 X157.364 Y125.847 E.01811
G1 X157.684 Y125.854 E.01004
M204 S1000
G1 X157.954 Y125.56 F10800
;WIPE_START
G1 F8640
G1 X158.1 Y125.926 E-.09748
G1 X158.649 Y126.173 E-.13902
G1 X159.147 Y126.605 E-.15217
G1 X159.491 Y127.166 E-.15217
G1 X159.65 Y127.806 E-.15217
G1 X159.632 Y128.096 E-.06698
;WIPE_END
G1 E-.04 F2100
G1 Z.6 F720
G1 X94.342 Y130.229 F10800
G1 Z.2 F720
G1 E.8 F2100
M204 S800
;TYPE:Perimeter
G1 F1200
G1 X93.819 Y130.591 E.01994
G1 X93.557 Y130.709 E.00902
G1 X92.976 Y130.868 E.01888
G1 X92.69 Y130.901 E.00902
G1 X92.088 Y130.878 E.01888
G1 X91.806 Y130.823 E.00902
G1 X91.239 Y130.62 E.01888
G1 X90.795 Y130.336 E.01652
G1 X90.308 Y129.91 E.0203
G1 X89.962 Y129.418 E.01887
G1 X89.745 Y128.947 E.01623
G1 X89.596 Y128.144 E.02562
G1 X89.596 Y127.856 E.00902
G1 X89.688 Y127.261 E.01888
G1 X89.775 Y126.987 E.00902
G1 X90.042 Y126.447 E.01888
G1 X90.208 Y126.212 E.00902
G1 X90.625 Y125.778 E.01888
G1 X90.854 Y125.603 E.00902
G1 X91.383 Y125.316 E.01888
G1 X91.651 Y125.219 E.00893
G1 X92.218 Y125.107 E.01811
G1 X92.751 Y125.099 E.01673
G1 X93.28 Y125.191 E.01682
G1 X93.958 Y125.484 E.02315
G1 X94.199 Y125.641 E.00902
G1 X94.649 Y126.041 E.01888
G1 X94.832 Y126.264 E.00902
G1 X95.139 Y126.781 E.01888
G1 X95.247 Y127.048 E.00902
G1 X95.384 Y127.634 E.01887
G1 X95.403 Y128.254 E.01943
G1 X95.247 Y128.952 E.02244
G1 X95.139 Y129.219 E.00902
G1 X94.832 Y129.736 E.01887
G1 X94.491 Y130.126 E.01623
G1 X94.392 Y130.195 E.0038
M204 S1000
G1 X94.173 Y129.891 F10800
M204 S800
G1 F1200
G1 X94.12 Y129.947 E.00243
G1 X93.614 Y130.274 E.01888
G1 X92.876 Y130.504 E.02424
G1 X92.103 Y130.501 E.02424
G1 X91.367 Y130.265 E.02424
G1 X90.736 Y129.817 E.02424
G1 X90.27 Y129.201 E.02424
G1 X90.063 Y128.693 E.0172
G1 X89.969 Y128.086 E.01924
G1 X90.061 Y127.319 E.02424
G1 X90.38 Y126.614 E.02424
G1 X90.897 Y126.039 E.02424
G1 X91.563 Y125.647 E.02424
G1 X92.291 Y125.477 E.02342
G1 X92.834 Y125.486 E.01703
G1 X93.254 Y125.582 E.01352
G1 X93.803 Y125.829 E.01888
G1 X94.398 Y126.323 E.02424
G1 X94.815 Y126.974 E.02424
G1 X95.017 Y127.72 E.02424
G1 X95.029 Y128.213 E.01545
G1 X94.88 Y128.866 E.02102
G1 X94.508 Y129.544 E.02424
G1 X94.215 Y129.848 E.01324
M204 S1000
G1 X93.74 Y129.744 F10800
M204 S800
;TYPE:External perimeter
G1 F1200
G1 X93.409 Y129.958 E.01235
G1 X92.776 Y130.141 E.02066
G1 X92.117 Y130.124 E.02066
G1 X91.494 Y129.91 E.02066
G1 X90.965 Y129.517 E.02066
G1 X90.578 Y128.984 E.02066
G1 X90.433 Y128.624 E.01216
G1 X90.342 Y128.029 E.01888
G1 X90.433 Y127.376 E.02066
G1 X90.718 Y126.782 E.02066
G1 X91.169 Y126.301 E.02066
G1 X91.743 Y125.978 E.02066
G1 X92.364 Y125.847 E.01988
G1 X92.762 Y125.856 E.01249
G1 X93.1 Y125.926 E.01082
G1 X93.649 Y126.173 E.01888
G1 X94.147 Y126.605 E.02066
G1 X94.491 Y127.166 E.02066
G1 X94.65 Y127.806 E.02066
G1 X94.654 Y128.171 E.01146
G1 X94.513 Y128.78 E.01959
G1 X94.184 Y129.351 E.02066
G1 X93.915 Y129.631 E.01216
G1 X93.79 Y129.711 E.00465
M204 S1000
G1 X93.779 Y130.136 F10800
;WIPE_START
G1 F8640
G1 X93.409 Y129.958 E-.10477
G1 X92.776 Y130.141 E-.15217
G1 X92.117 Y130.124 E-.15217
G1 X91.494 Y129.91 E-.15217
G1 X90.965 Y129.517 E-.15217
G1 X90.847 Y129.354 E-.04655
;WIPE_END
G1 E-.04 F2100
G1 Z.6 F720
G1 X90.143 Y83.696 F10800
G1 Z.2 F720
G1 E.8 F2100
M204 S800
;TYPE:Perimeter
G1 F1200
G1 X90.042 Y83.553 E.0055
G1 X89.775 Y83.013 E.01887
G1 X89.688 Y82.739 E.00902
G1 X89.596 Y82.144 E.01888
G1 X89.596 Y81.856 E.00902
G1 X89.688 Y81.261 E.01888
G1 X89.775 Y80.987 E.00902
G1 X90.042 Y80.447 E.01888
G1 X90.208 Y80.212 E.00902
G1 X90.625 Y79.778 E.01888
G1 X90.854 Y79.603 E.00902
G1 X91.383 Y79.316 E.01888
G1 X91.651 Y79.219 E.00893
G1 X92.218 Y79.107 E.01811
G1 X92.751 Y79.099 E.01673
G1 X93.557 Y79.291 E.02596
G1 X93.819 Y79.409 E.00902
G1 X94.325 Y79.736 E.01888
G1 X94.539 Y79.928 E.00902
G1 X94.922 Y80.392 E.01888
G1 X95.07 Y80.64 E.00902
G1 X95.295 Y81.198 E.01888
G1 X95.36 Y81.478 E.00902
G1 X95.406 Y82.079 E.01888
G1 X95.4 Y82.281 E.00636
G1 X95.247 Y82.952 E.02157
G1 X95.139 Y83.219 E.00902
G1 X94.832 Y83.736 E.01887
G1 X94.649 Y83.958 E.00902
G1 X94.199 Y84.359 E.01888
G1 X93.958 Y84.516 E.00902
G1 X93.408 Y84.762 E.01887
G1 X93.131 Y84.838 E.00902
G1 X92.533 Y84.907 E.01888
G1 X92.245 Y84.896 E.00902
G1 X91.654 Y84.781 E.01888
G1 X91.383 Y84.684 E.00902
G1 X90.854 Y84.397 E.01888
G1 X90.625 Y84.222 E.00902
G1 X90.178 Y83.745 E.02051
M204 S1000
G1 X90.438 Y83.45 F10800
M204 S800
G1 F1200
G1 X90.113 Y82.846 E.02151
G1 X89.969 Y82.086 E.02425
G1 X90.061 Y81.319 E.02424
G1 X90.38 Y80.614 E.02424
G1 X90.897 Y80.039 E.02424
G1 X91.563 Y79.647 E.02424
G1 X92.291 Y79.477 E.02342
G1 X92.876 Y79.495 E.01836
G1 X93.457 Y79.655 E.01888
G1 X94.12 Y80.053 E.02424
G1 X94.632 Y80.632 E.02424
G1 X94.945 Y81.339 E.02424
G1 X95.03 Y82.108 E.02424
G1 X95.027 Y82.229 E.00381
G1 X94.88 Y82.866 E.02049
G1 X94.508 Y83.544 E.02424
G1 X93.948 Y84.078 E.02425
G1 X93.254 Y84.418 E.02424
G1 X92.489 Y84.533 E.02425
G1 X91.726 Y84.411 E.02424
G1 X91.034 Y84.065 E.02424
G1 X90.467 Y83.503 E.02505
M204 S1000
G1 X90.682 Y83.13 F10800
M204 S800
;TYPE:External perimeter
G1 F1200
G1 X90.451 Y82.679 E.01589
G1 X90.342 Y82.029 E.02067
G1 X90.433 Y81.376 E.02066
G1 X90.718 Y80.782 E.02066
G1 X91.169 Y80.301 E.02066
G1 X91.743 Y79.978 E.02066
G1 X92.364 Y79.847 E.01988
G1 X92.776 Y79.859 E.01293
G1 X93.357 Y80.019 E.01888
G1 X93.915 Y80.369 E.02066
G1 X94.341 Y80.872 E.02066
G1 X94.595 Y81.48 E.02066
G1 X94.653 Y82.177 E.02193
G1 X94.513 Y82.78 E.01942
G1 X94.184 Y83.351 E.02066
G1 X93.697 Y83.796 E.02067
G1 X93.1 Y84.074 E.02066
G1 X92.446 Y84.158 E.02067
G1 X91.798 Y84.041 E.02066
G1 X91.214 Y83.734 E.02066
G1 X90.751 Y83.265 E.02066
G1 X90.709 Y83.183 E.00288
M204 S1000
G1 X90.282 Y83.143 F10800
;WIPE_START
G1 F8640
G1 X90.451 Y82.679 E-.1309
G1 X90.342 Y82.029 E-.1522
G1 X90.433 Y81.376 E-.15217
G1 X90.718 Y80.782 E-.15217
G1 X91.169 Y80.301 E-.15217
G1 X91.246 Y80.258 E-.02039
;WIPE_END
G1 E-.04 F2100
G1 Z.6 F720
G1 X162.223 Y77.041 F10800
G1 Z.2 F720
G1 E.8 F2100
M204 S800
;TYPE:Solid infill
;WIDTH:0.42071
G1 F1200
G1 X161.629 Y76.447 E.02639
G1 X161.094 Y76.447 E.01678
G1 X162.053 Y77.406 E.04259
G1 X162.053 Y77.94 E.01678
G1 X160.56 Y76.447 E.06632
G1 X160.026 Y76.447 E.01678
G1 X162.053 Y78.474 E.09006
G1 X162.053 Y79.008 E.01678
G1 X159.492 Y76.447 E.1138
G1 X158.957 Y76.447 E.01678
G1 X162.053 Y79.543 E.13753
G1 X162.053 Y80.077 E.01678
G1 X158.423 Y76.447 E.16127
G1 X157.889 Y76.447 E.01678
G1 X162.053 Y80.611 E.185
G1 X162.053 Y81.146 E.01678
G1 X157.354 Y76.447 E.20874
G1 X156.82 Y76.447 E.01678
G1 X162.053 Y81.68 E.23247
G1 X162.053 Y82.214 E.01678
G1 X156.286 Y76.447 E.25621
G1 X155.752 Y76.447 E.01678
G1 X158.189 Y78.884 E.10829
G1 X157.765 Y78.816 E.01349
G1 X157.582 Y78.811 E.00577
G1 X155.217 Y76.447 E.10504
G1 X154.683 Y76.447 E.01678
G1 X157.082 Y78.846 E.10658
G1 X156.636 Y78.934 E.01429
G1 X154.149 Y76.447 E.11048
G1 X153.615 Y76.447 E.01678
G1 X156.236 Y79.069 E.11647
G1 X155.884 Y79.251 E.01245
G1 X153.08 Y76.447 E.12457
G1 X152.546 Y76.447 E.01678
G1 X155.575 Y79.476 E.13456
G1 X155.278 Y79.713 E.01194
G1 X152.012 Y76.447 E.1451
G1 X151.477 Y76.447 E.01678
G1 X155.02 Y79.99 E.1574
G1 X154.8 Y80.304 E.01205
G1 X150.943 Y76.447 E.17133
G1 X150.409 Y76.447 E.01678
G1 X154.627 Y80.665 E.18738
G1 X154.455 Y81.028 E.01261
G1 X149.875 Y76.447 E.20351
G1 X149.34 Y76.447 E.01678
G1 X154.373 Y81.48 E.2236
G1 X154.31 Y81.951 E.01492
G1 X148.806 Y76.447 E.24451
G1 X148.272 Y76.447 E.01678
G1 X154.58 Y82.756 E.28027
M204 S1000
;WIPE_START
G1 F8640
G1 X152.253 Y80.428 E-.76
;WIPE_END
G1 E-.04 F2100
