; generated by PrusaSlicer 2.5.0+win64 on 2023-03-08 at 18:51:41 UTC


;
;
; 

; external perimeters extrusion width = 0.45mm
; perimeters extrusion width = 0.45mm
; infill extrusion width = 0.45mm
; solid infill extrusion width = 0.45mm
; top infill extrusion width = 0.40mm
; first layer extrusion width = 0.42mm

M73 P0 R30
M73 Q0 S30
M201 X1000 Y1000 Z200 E5000 ; sets maximum accelerations, mm/sec^2
M203 X200 Y200 Z12 E120 ; sets maximum feedrates, mm / sec
M204 P1250 R1250 T1250 ; sets acceleration (P, T) and retract acceleration (R), mm/sec^2
M205 X8.00 Y8.00 Z0.40 E4.50 ; sets the jerk limits, mm/sec
M205 S0 T0 ; sets the minimum extruding and travel feed rate, mm/sec
M107
;TYPE:Custom
M862.3 P "MK3S" ; printer model check
M862.1 P0.4 ; nozzle diameter check
M115 U3.11.0 ; tell printer latest fw version
G90 ; use absolute coordinates
M83 ; extruder relative mode
M104 S215 ; set extruder temp
M140 S60 ; set bed temp
M190 S60 ; wait for bed temp
M109 S215 ; wait for extruder temp
G28 W ; home all without mesh bed level
G80 ; mesh bed leveling

G1 Z0.2 F720
G1 Y-3 F1000 ; go outside print area
G92 E0
G1 X60 E9 F1000 ; intro line
G1 X100 E12.5 F1000 ; intro line

G92 E0
M221 S95

; Don't change E values below. Excessive value can damage the printer.
M907 E430 ; set extruder motor current
G21 ; set units to millimeters
G90 ; use absolute coordinates
M83 ; use relative distances for extrusion
M900 K0.05 ; Filament gcode LA 1.5
M900 K30 ; Filament gcode LA 1.0
M107
;LAYER_CHANGE
;Z:0.2
;HEIGHT:0.2
;BEFORE_LAYER_CHANGE
G92 E0.0
;0.2


G1 E-.8 F2100
G1 Z.4 F720
;AFTER_LAYER_CHANGE
;0.2
G1 X103.855 Y84.372 F10800
G1 Z.2 F720
G1 E.8 F2100
M204 S800
;TYPE:Skirt/Brim
;WIDTH:0.42
G1 F1200
G1 X104.549 Y83.708 E.03011
G1 X105.541 Y83.079 E.03682
G1 X106.615 Y82.688 E.03585
G1 X107.541 Y82.543 E.02938
G1 X142.197 Y82.531 E1.08663
G1 X143.129 Y82.631 E.02937
G1 X144.029 Y82.891 E.02939
G1 X144.871 Y83.303 E.02938
G1 X145.639 Y83.866 E.02984
G1 X146.437 Y84.738 E.03708
G1 X146.921 Y85.541 E.02938
G1 X147.259 Y86.415 E.02938
G1 X147.439 Y87.335 E.02938
G1 X147.469 Y122.197 E1.0931
G1 X147.369 Y123.129 E.02938
G1 X147.109 Y124.029 E.02938
G1 X146.697 Y124.871 E.02938
G1 X146.144 Y125.628 E.02938
G1 X145.262 Y126.437 E.03755
G1 X144.271 Y127.009 E.03585
G1 X143.129 Y127.369 E.03755
G1 X142.094 Y127.471 E.03262
G1 X107.803 Y127.469 E1.07518
G1 X106.871 Y127.369 E.02938
G1 X105.971 Y127.109 E.02938
G1 X105.129 Y126.697 E.02938
G1 X104.372 Y126.144 E.02938
G1 X103.563 Y125.262 E.03755
G1 X102.991 Y124.271 E.03585
G1 X102.631 Y123.129 E.03755
G1 X102.529 Y122.094 E.03262
G1 X102.531 Y87.803 E1.07518
G1 X102.631 Y86.871 E.02937
G1 X102.891 Y85.971 E.02939
G1 X103.303 Y85.129 E.02938
G1 X103.82 Y84.421 E.0275
M204 S1000
; printing object Body1.stl id:0 copy 0
;WIPE_START
G1 F8640
G1 X104.549 Y83.708 E-.23537
G1 X105.541 Y83.079 E-.27118
G1 X106.572 Y82.703 E-.25346
;WIPE_END
G1 E-.04 F2100
G1 Z.6 F720
G1 X106.447 Y89.044 F10800
G1 Z.2 F720
G1 E.8 F2100
M204 S800
;TYPE:Perimeter
;WIDTH:0.419999
G1 F1200
G1 X106.447 Y88.038 E.03154
G1 X106.475 Y87.654 E.01209
G1 X106.583 Y87.319 E.01103
G1 X106.883 Y86.883 E.0166
G1 X107.039 Y86.763 E.00616
G1 X107.409 Y86.54 E.01355
G1 X107.969 Y86.447 E.01779
G1 X142.032 Y86.448 E1.06803
G1 X142.591 Y86.54 E.01776
G1 X143.028 Y86.793 E.01583
G1 X143.264 Y87.054 E.01103
G1 X143.503 Y87.558 E.0175
G1 X143.542 Y87.88 E.01014
G1 X143.552 Y121.961 E1.06861
G1 X143.525 Y122.346 E.0121
M73 P1 R30
M73 Q1 S30
G1 X143.417 Y122.681 E.01103
G1 X143.117 Y123.117 E.0166
G1 X142.961 Y123.237 E.00616
G1 X142.591 Y123.46 E.01355
G1 X142.031 Y123.553 E.01779
G1 X108.038 Y123.553 E1.06583
G1 X107.654 Y123.525 E.01209
G1 X107.206 Y123.365 E.01491
G1 X106.797 Y123.025 E.01667
G1 X106.533 Y122.563 E.01667
G1 X106.447 Y122.031 E.0169
G1 X106.447 Y89.104 E1.03241
M204 S1000
G1 X106.07 Y89.044 F10800
M204 S800
G1 F1200
G1 X106.07 Y87.953 E.03422
G1 X106.141 Y87.444 E.01611
G1 X106.311 Y87.009 E.01463
G1 X106.614 Y86.614 E.01561
G1 X107.009 Y86.311 E.01561
G1 X107.444 Y86.141 E.01464
G1 X107.953 Y86.07 E.01611
G1 X142.049 Y86.07 E1.06905
G1 X142.564 Y86.143 E.01632
G1 X143.01 Y86.32 E.01503
G1 X143.377 Y86.608 E.01464
G1 X143.668 Y86.973 E.01465
G1 X143.867 Y87.452 E.01625
G1 X143.919 Y87.879 E.01349
G1 X143.93 Y122.048 E1.07132
G1 X143.859 Y122.556 E.0161
G1 X143.689 Y122.991 E.01464
G1 X143.386 Y123.386 E.01561
G1 X142.991 Y123.689 E.01561
G1 X142.556 Y123.859 E.01464
G1 X142.047 Y123.93 E.01611
G1 X107.953 Y123.93 E1.06902
G1 X107.444 Y123.859 E.01611
G1 X107.009 Y123.689 E.01464
G1 X106.508 Y123.267 E.02054
G1 X106.294 Y122.921 E.01274
G1 X106.137 Y122.54 E.01293
G1 X106.07 Y122.047 E.01559
G1 X106.07 Y89.104 E1.03292
M204 S1000
G1 X105.693 Y89.044 F10800
M204 S800
G1 F1200
G1 X105.702 Y87.835 E.03792
G1 X105.786 Y87.31 E.01665
G1 X105.987 Y86.812 E.01683
G1 X106.345 Y86.345 E.01846
G1 X106.812 Y85.987 E.01846
G1 X107.346 Y85.777 E.01799
G1 X107.936 Y85.693 E.01868
G1 X141.963 Y85.693 E1.0669
G1 X142.166 Y85.702 E.00636
G1 X142.667 Y85.78 E.0159
G1 X143.199 Y85.992 E.01795
G1 X143.67 Y86.368 E.0189
G1 X144.001 Y86.791 E.01683
G1 X144.231 Y87.346 E.01884
G1 X144.296 Y87.879 E.01684
G1 X144.307 Y121.961 E1.06861
G1 X144.298 Y122.166 E.00642
G1 X144.214 Y122.69 E.01664
G1 X144.013 Y123.188 E.01683
G1 X143.655 Y123.655 E.01846
G1 X143.188 Y124.013 E.01846
G1 X142.654 Y124.223 E.01799
G1 X142.064 Y124.307 E.01868
G1 X108.038 Y124.307 E1.06685
G1 X107.835 Y124.298 E.00639
G1 X107.31 Y124.214 E.01665
G1 X106.812 Y124.013 E.01683
G1 X106.335 Y123.648 E.01884
M73 Q2 S30
G1 X106.104 Y123.371 E.01131
G1 X105.922 Y123.022 E.01234
G1 X105.772 Y122.638 E.01292
G1 X105.693 Y122.064 E.01817
G1 X105.693 Y89.104 E1.03343
M204 S1000
G1 X105.316 Y89.044 F10800
M204 S800
;TYPE:External perimeter
M73 P2 R29
G1 F1200
G1 X105.316 Y88.038 E.03154
G1 X105.334 Y87.72 E.01
G1 X105.422 Y87.213 E.01614
G1 X105.662 Y86.616 E.02018
G1 X106.076 Y86.076 E.02131
G1 X106.616 Y85.662 E.02131
G1 X106.841 Y85.557 E.00779
G1 X107.457 Y85.357 E.02031
G1 X107.92 Y85.316 E.01458
G1 X141.963 Y85.316 E1.06741
G1 X142.199 Y85.327 E.00739
G1 X142.759 Y85.414 E.01779
G1 X143.181 Y85.567 E.01405
G1 X143.568 Y85.79 E.01403
G1 X143.937 Y86.102 E.01512
G1 X144.334 Y86.608 E.02018
G1 X144.595 Y87.24 E.02143
G1 X144.673 Y87.879 E.02019
G1 X144.684 Y121.961 E1.06861
G1 X144.666 Y122.28 E.01003
G1 X144.578 Y122.787 E.01614
G1 X144.338 Y123.384 E.02018
G1 X143.924 Y123.924 E.02132
G1 X143.384 Y124.338 E.02131
G1 X143.159 Y124.443 E.00779
G1 X142.543 Y124.643 E.02031
G1 X142.08 Y124.684 E.01458
G1 X108.038 Y124.684 E1.06737
G1 X107.717 Y124.666 E.01009
M73 Q2 S29
G1 X107.213 Y124.578 E.01604
G1 X106.616 Y124.338 E.02018
G1 X106.073 Y123.922 E.02143
G1 X105.788 Y123.582 E.0139
G1 X105.472 Y122.976 E.02143
G1 X105.408 Y122.736 E.0078
G1 X105.316 Y122.08 E.02075
G1 X105.316 Y89.104 E1.03395
M204 S1000
G1 X105.662 Y88.844 F10800
;WIPE_START
G1 F8640
G1 X105.316 Y88.038 E-.24611
G1 X105.334 Y87.72 E-.07365
G1 X105.422 Y87.213 E-.11883
G1 X105.662 Y86.616 E-.14862
G1 X106.076 Y86.076 E-.15697
G1 X106.131 Y86.034 E-.01583
;WIPE_END
G1 E-.04 F2100
G1 Z.6 F720
G1 X131.304 Y120.302 F10800
G1 Z.2 F720
G1 E.8 F2100
M204 S800
;TYPE:Perimeter
G1 F1200
G1 X130.168 Y121.155 E.04454
G1 X129.251 Y121.676 E.03305
G1 X128.315 Y122.079 E.03196
G1 X127.341 Y122.38 E.03196
G1 X126.341 Y122.577 E.03196
G1 X124.85 Y122.668 E.04683
G1 X123.799 Y122.595 E.03305
G1 X122.795 Y122.414 E.03196
G1 X121.817 Y122.127 E.03197
G1 X120.875 Y121.737 E.03196
G1 X119.98 Y121.25 E.03196
G1 X119.141 Y120.67 E.03196
G1 X118.245 Y119.88 E.03746
G1 X117.377 Y118.888 E.04133
G1 X116.785 Y118.016 E.03305
G1 X116.308 Y117.115 E.03196
G1 X115.93 Y116.168 E.03196
G1 X115.654 Y115.187 E.03196
G1 X115.485 Y114.182 E.03196
G1 X115.433 Y112.689 E.04683
G1 X115.534 Y111.64 E.03305
G1 X115.742 Y110.642 E.03196
G1 X116.055 Y109.672 E.03196
G1 X116.469 Y108.74 E.03196
G1 X117.08 Y107.713 E.03746
G1 X117.894 Y106.676 E.04133
G1 X118.641 Y105.933 E.03305
G1 X119.583 Y105.198 E.03746
G1 X120.719 Y104.529 E.04133
G1 X121.685 Y104.109 E.03305
G1 X122.659 Y103.807 E.03196
G1 X123.659 Y103.611 E.03196
G1 X124.85 Y103.52 E.03746
G1 X126.167 Y103.59 E.04133
G1 X127.205 Y103.774 E.03305
G1 X128.183 Y104.061 E.03196
G1 X129.125 Y104.45 E.03196
G1 X130.02 Y104.938 E.03196
G1 X130.859 Y105.518 E.03196
G1 X131.755 Y106.307 E.03746
G1 X132.623 Y107.299 E.04133
G1 X133.215 Y108.171 E.03305
G1 X133.692 Y109.072 E.03196
G1 X134.07 Y110.019 E.03196
G1 X134.346 Y111.001 E.03196
G1 X134.515 Y112.006 E.03196
G1 X134.567 Y113.498 E.04683
G1 X134.466 Y114.548 E.03305
G1 X134.258 Y115.546 E.03196
G1 X133.945 Y116.516 E.03196
G1 X133.531 Y117.447 E.03196
G1 X132.748 Y118.719 E.04683
G1 X132.085 Y119.538 E.03305
G1 X131.349 Y120.263 E.03238
M204 S1000
G1 X131.059 Y120.016 F10800
M204 S800
G1 F1200
G1 X129.943 Y120.852 E.04373
G1 X129.069 Y121.346 E.03148
G1 X128.168 Y121.732 E.03071
G1 X127.232 Y122.019 E.03071
G1 X126.271 Y122.206 E.03071
G1 X124.83 Y122.291 E.04526
G1 X123.829 Y122.219 E.03148
G1 X122.865 Y122.043 E.03071
G1 X121.926 Y121.766 E.03071
G1 X121.022 Y121.39 E.03071
G1 X120.162 Y120.92 E.03071
G1 X119.358 Y120.361 E.03071
G1 X118.529 Y119.632 E.03463
G1 X117.661 Y118.64 E.04133
G1 X117.099 Y117.808 E.03148
G1 X116.643 Y116.941 E.03071
G1 X116.281 Y116.031 E.03071
G1 X116.018 Y115.088 E.03071
G1 X115.857 Y114.122 E.03071
G1 X115.81 Y112.679 E.04526
G1 X115.909 Y111.68 E.03148
G1 X116.111 Y110.721 E.03071
G1 X116.413 Y109.79 E.03071
G1 X116.813 Y108.896 E.03071
G1 X117.376 Y107.946 E.03463
G1 X118.19 Y106.909 E.04133
G1 X118.904 Y106.203 E.03148
G1 X119.774 Y105.523 E.03463
G1 X120.91 Y104.854 E.04133
G1 X121.832 Y104.456 E.03148
G1 X122.768 Y104.168 E.03071
G1 X123.729 Y103.981 E.03071
G1 X124.83 Y103.896 E.03463
G1 X126.147 Y103.966 E.04133
G1 X127.135 Y104.144 E.03148
G1 X128.074 Y104.422 E.03071
G1 X128.978 Y104.798 E.03071
G1 X129.838 Y105.268 E.03071
G1 X130.642 Y105.826 E.03071
G1 X131.471 Y106.556 E.03463
G1 X132.339 Y107.548 E.04133
G1 X132.901 Y108.38 E.03148
G1 X133.357 Y109.246 E.03071
G1 X133.719 Y110.156 E.03071
G1 X133.982 Y111.1 E.03071
G1 X134.143 Y112.066 E.03071
G1 X134.19 Y113.509 E.04526
G1 X134.091 Y114.508 E.03148
G1 X133.889 Y115.466 E.03071
G1 X133.587 Y116.397 E.03071
G1 X133.187 Y117.291 E.03071
G1 X132.429 Y118.519 E.04526
G1 X131.794 Y119.298 E.03148
G1 X131.104 Y119.977 E.03035
M204 S1000
G1 X130.815 Y119.73 F10800
M204 S800
G1 F1200
G1 X129.718 Y120.549 E.04293
G1 X128.886 Y121.016 E.02991
G1 X128.022 Y121.384 E.02945
G1 X127.123 Y121.658 E.02945
G1 X126.201 Y121.836 E.02945
G1 X124.81 Y121.915 E.04369
G1 X123.859 Y121.844 E.02991
G1 X122.935 Y121.673 E.02945
G1 X122.035 Y121.405 E.02945
G1 X121.168 Y121.042 E.02945
G1 X120.345 Y120.59 E.02945
G1 X119.575 Y120.053 E.02945
G1 X118.813 Y119.383 E.0318
G1 X117.945 Y118.391 E.04133
G1 X117.413 Y117.599 E.02991
G1 X116.977 Y116.767 E.02945
G1 X116.632 Y115.894 E.02945
G1 X116.382 Y114.988 E.02945
G1 X116.229 Y114.062 E.02945
G1 X116.187 Y112.669 E.04369
G1 X116.284 Y111.72 E.02991
G1 X116.479 Y110.801 E.02945
G1 X116.771 Y109.908 E.02945
G1 X117.156 Y109.052 E.02945
G1 X117.673 Y108.179 E.0318
G1 X118.487 Y107.142 E.04133
G1 X119.167 Y106.473 E.02991
G1 X119.966 Y105.848 E.0318
G1 X121.101 Y105.179 E.04133
G1 X121.978 Y104.803 E.02991
G1 X122.877 Y104.529 E.02945
G1 X123.799 Y104.352 E.02945
G1 X124.81 Y104.273 E.0318
G1 X126.127 Y104.343 E.04133
G1 X127.065 Y104.515 E.02991
G1 X127.965 Y104.783 E.02945
G1 X128.832 Y105.145 E.02945
G1 X129.655 Y105.597 E.02945
G1 X130.425 Y106.135 E.02945
G1 X131.187 Y106.804 E.0318
G1 X132.055 Y107.796 E.04133
G1 X132.587 Y108.588 E.02991
G1 X133.023 Y109.42 E.02945
G1 X133.368 Y110.294 E.02945
G1 X133.618 Y111.199 E.02945
M73 Q3 S29
G1 X133.771 Y112.126 E.02945
G1 X133.813 Y113.519 E.04369
G1 X133.716 Y114.468 E.02991
M73 P3 R29
G1 X133.521 Y115.386 E.02945
G1 X133.229 Y116.279 E.02945
G1 X132.844 Y117.136 E.02945
G1 X132.109 Y118.319 E.04369
G1 X131.504 Y119.057 E.02991
G1 X130.859 Y119.689 E.02833
M204 S1000
G1 X130.714 Y119.304 F10800
M204 S800
;TYPE:External perimeter
G1 F1200
G1 X130.551 Y119.461 E.00711
G1 X129.493 Y120.247 E.04133
G1 X128.703 Y120.686 E.02834
G1 X127.875 Y121.037 E.02819
G1 X127.015 Y121.297 E.02819
G1 X126.131 Y121.465 E.02819
G1 X124.79 Y121.538 E.04212
G1 X123.889 Y121.468 E.02834
G1 X123.005 Y121.302 E.02819
G1 X122.144 Y121.044 E.02819
G1 X121.315 Y120.695 E.02819
G1 X120.528 Y120.26 E.02819
G1 X119.791 Y119.744 E.02819
G1 X119.096 Y119.135 E.02898
G1 X118.228 Y118.143 E.04133
G1 X117.727 Y117.391 E.02834
G1 X117.312 Y116.593 E.02819
G1 X116.983 Y115.756 E.02819
G1 X116.746 Y114.889 E.02819
G1 X116.602 Y114.002 E.02819
G1 X116.564 Y112.659 E.04212
G1 X116.659 Y111.76 E.02834
G1 X116.848 Y110.881 E.02819
G1 X117.129 Y110.027 E.02819
G1 X117.5 Y109.208 E.02819
G1 X117.969 Y108.412 E.02898
G1 X118.783 Y107.375 E.04133
G1 X119.43 Y106.743 E.02834
G1 X120.157 Y106.173 E.02898
G1 X121.293 Y105.504 E.04133
G1 X122.125 Y105.151 E.02834
G1 X122.985 Y104.89 E.02819
G1 X123.869 Y104.722 E.02819
G1 X124.79 Y104.649 E.02898
G1 X126.107 Y104.72 E.04133
G1 X126.995 Y104.885 E.02834
G1 X127.856 Y105.144 E.02819
G1 X128.685 Y105.493 E.02819
G1 X129.472 Y105.927 E.02819
G1 X130.209 Y106.443 E.02819
G1 X130.904 Y107.052 E.02898
G1 X131.772 Y108.044 E.04133
G1 X132.273 Y108.797 E.02834
G1 X132.688 Y109.594 E.02819
G1 X133.017 Y110.431 E.02819
G1 X133.254 Y111.298 E.02819
G1 X133.398 Y112.186 E.02819
G1 X133.436 Y113.529 E.04212
G1 X133.341 Y114.427 E.02834
G1 X133.152 Y115.307 E.02819
G1 X132.871 Y116.161 E.02819
G1 X132.5 Y116.98 E.02819
G1 X131.789 Y118.119 E.04212
G1 X131.214 Y118.816 E.02834
G1 X130.757 Y119.262 E.01999
M204 S1000
G1 X130.774 Y119.522 F10800
;WIPE_START
G1 F8640
G1 X130.551 Y119.461 E-.06618
G1 X129.493 Y120.247 E-.30438
G1 X128.703 Y120.686 E-.2087
G1 X127.982 Y120.991 E-.18074
;WIPE_END
G1 E-.04 F2100
G1 Z.6 F720
G1 X141.861 Y86.561 F10800
G1 Z.2 F720
G1 E.8 F2100
M204 S800
;TYPE:Solid infill
;WIDTH:0.421132
G1 F1200
G1 X143.259 Y87.959 E.06218
G1 X143.259 Y88.494 E.01683
G1 X141.496 Y86.73 E.07843
G1 X140.961 Y86.73 E.01682
G1 X143.259 Y89.029 E.10223
G1 X143.259 Y89.564 E.01683
G1 X140.426 Y86.73 E.12603
G1 X139.891 Y86.73 E.01682
G1 X143.26 Y90.099 E.14982
G1 X143.26 Y90.634 E.01683
G1 X139.356 Y86.73 E.17362
G1 X138.821 Y86.73 E.01682
G1 X143.26 Y91.169 E.19741
G1 X143.26 Y91.704 E.01683
G1 X138.286 Y86.73 E.22121
G1 X137.751 Y86.73 E.01682
G1 X143.26 Y92.239 E.245
G1 X143.26 Y92.774 E.01683
G1 X137.217 Y86.73 E.2688
G1 X136.682 Y86.73 E.01682
G1 X143.261 Y93.309 E.2926
G1 X143.261 Y93.844 E.01683
G1 X136.147 Y86.73 E.31639
G1 X135.612 Y86.73 E.01682
G1 X143.261 Y94.379 E.34019
G1 X143.261 Y94.914 E.01683
G1 X135.077 Y86.73 E.36398
G1 X134.542 Y86.73 E.01682
G1 X143.261 Y95.449 E.38778
G1 X143.261 Y95.984 E.01683
G1 X134.007 Y86.73 E.41158
G1 X133.472 Y86.73 E.01682
G1 X143.262 Y96.519 E.43537
G1 X143.262 Y97.055 E.01683
G1 X132.938 Y86.73 E.45917
G1 X132.403 Y86.73 E.01682
G1 X143.262 Y97.59 E.48296
G1 X143.262 Y98.125 E.01683
G1 X131.868 Y86.73 E.50676
G1 X131.333 Y86.73 E.01682
G1 X143.262 Y98.66 E.53056
G1 X143.263 Y99.195 E.01683
G1 X130.798 Y86.73 E.55435
G1 X130.263 Y86.73 E.01682
G1 X143.263 Y99.73 E.57815
G1 X143.263 Y100.265 E.01683
G1 X129.728 Y86.73 E.60194
G1 X129.193 Y86.73 E.01682
G1 X143.263 Y100.8 E.62574
G1 X143.263 Y101.335 E.01683
M73 Q4 S29
G1 X128.659 Y86.73 E.64954
G1 X128.124 Y86.73 E.01682
M73 P4 R29
G1 X143.263 Y101.87 E.67333
G1 X143.264 Y102.405 E.01683
G1 X127.589 Y86.73 E.69713
G1 X127.054 Y86.73 E.01682
G1 X143.264 Y102.94 E.72092
G1 X143.264 Y103.475 E.01683
G1 X126.519 Y86.73 E.74472
G1 X125.984 Y86.73 E.01682
G1 X143.264 Y104.01 E.76851
G1 X143.264 Y104.545 E.01683
G1 X125.449 Y86.73 E.79231
G1 X124.915 Y86.73 E.01682
G1 X143.264 Y105.08 E.81611
G1 X143.265 Y105.615 E.01683
G1 X124.38 Y86.73 E.8399
G1 X123.845 Y86.73 E.01682
G1 X143.265 Y106.15 E.8637
G1 X143.265 Y106.685 E.01683
G1 X123.31 Y86.73 E.88749
G1 X122.775 Y86.73 E.01682
